img/svg/responsibility-icon3.svg

<svg width="80" height="80" viewBox="0 0 80 80" fill="none" xmlns="http://www.w3.org/2000/svg">
<circle cx="40" cy="40" r="40" fill="#0055FF" fill-opacity="0.03"/>
<path fill-rule="evenodd" clip-rule="evenodd" d="M25.2856 32.3493C24.0676 33.6145 23.3612 35.4994 23.3612 37.9646C23.3612 42.921 27.1154 45.5679 30.6554 45.5667H32.353C32.6238 45.5667 32.8688 45.7272 32.9769 45.9755C33.0851 46.2237 33.0358 46.5124 32.8514 46.7107L31.0778 48.618L32.2595 49.7952L37.1509 44.9038L32.2606 40.0135L31.0938 41.181L32.667 42.7553C32.8615 42.95 32.9197 43.2427 32.8143 43.4969C32.7089 43.7512 32.4608 43.917 32.1856 43.917H30.6556C29.6769 43.917 28.2809 43.6082 27.1132 42.7015C25.915 41.7711 25.0123 40.2517 25.0123 37.9646C25.0123 36.1007 25.4373 34.5826 26.426 33.5321C27.4224 32.4735 28.8748 32.0123 30.6556 32.0123C31.0315 32.0123 31.3362 32.317 31.3362 32.6928C31.3362 33.0687 31.0315 33.3734 30.6556 33.3734C29.0962 33.3734 28.0671 33.7745 27.4172 34.465C26.7597 35.1636 26.3734 36.2813 26.3734 37.9646C26.3734 39.8468 27.0939 40.9632 27.948 41.6264C28.7879 42.2786 29.8089 42.5302 30.5414 42.5539L29.6502 41.6621C29.3846 41.3964 29.3846 40.9657 29.6502 40.6999L31.779 38.5697C31.9067 38.442 32.0798 38.3703 32.2603 38.3702C32.4409 38.3702 32.614 38.4419 32.7417 38.5696L38.5947 44.4226C38.8605 44.6883 38.8605 45.1193 38.5947 45.3851L32.7417 51.238C32.4763 51.5035 32.046 51.5039 31.7801 51.239L29.6513 49.1183C29.3914 48.8594 29.3834 48.4412 29.6332 48.1727L30.7907 46.9279H30.6559C30.6558 46.9279 30.6557 46.9279 30.6556 46.9279C26.4643 46.9292 22 43.7695 22 37.9646C22 35.2425 22.784 32.9853 24.305 31.4053C25.8292 29.822 28.0155 29 30.6556 29C33.7405 29 36.2541 31.303 37.9224 33.3987C38.774 34.4684 39.4454 35.5344 39.9033 36.3311C40.1327 36.7302 40.3097 37.0636 40.4299 37.2987C40.4901 37.4163 40.5361 37.5094 40.5675 37.5739C40.5832 37.6062 40.5953 37.6314 40.6036 37.6489C40.6077 37.6577 40.611 37.6645 40.6133 37.6694L40.616 37.6752L40.6171 37.6776C40.6172 37.6779 40.6173 37.6781 40 37.9646L40.6173 37.6781L40.6195 37.6827L40.6196 37.683L40.6211 37.6863C40.6219 37.688 40.623 37.6904 40.6244 37.6934C40.6254 37.6957 40.6266 37.6983 40.628 37.7012C40.6344 37.715 40.6444 37.7363 40.6579 37.7647C40.685 37.8214 40.7261 37.9061 40.7808 38.0149C40.8902 38.2327 41.0538 38.5462 41.2676 38.9234C41.6961 39.6795 42.322 40.6838 43.1136 41.6843C44.7298 43.727 46.8888 45.5681 49.3444 45.5681C51.6983 45.5681 53.4996 44.8418 54.7144 43.5799C55.9324 42.3147 56.6388 40.4299 56.6388 37.9646V37.9643C56.6413 33.0083 52.8874 30.3612 49.3457 30.3612C47.4347 30.3612 45.2783 31.397 43.7425 32.3304C43.7422 32.3307 43.7418 32.3309 43.7415 32.3311L42.4576 33.1191C42.1373 33.3157 41.7182 33.2154 41.5216 32.895C41.325 32.5747 41.4253 32.1556 41.7456 31.959L43.0319 31.1695L43.0344 31.168C44.602 30.2151 47.0349 29 49.3457 29C53.5381 29 58.0029 32.1595 58 37.965L57.3194 37.9646H58C58 37.9647 58 37.9648 58 37.965C57.9999 40.6869 57.2159 42.944 55.695 44.5239C54.1708 46.1072 51.9845 46.9292 49.3444 46.9292C46.2205 46.9292 43.7073 44.6283 42.0462 42.5289C41.1992 41.4584 40.5351 40.3917 40.0834 39.5946C39.857 39.1952 39.6828 38.8615 39.5646 38.6262C39.5054 38.5085 39.4602 38.4153 39.4294 38.3506C39.4139 38.3183 39.4021 38.2931 39.3939 38.2755C39.3898 38.2667 39.3867 38.2599 39.3844 38.2549L39.3828 38.2514M39.3817 38.2491L39.3811 38.2478C39.3802 38.2458 39.3789 38.2431 39.3772 38.2395L39.374 38.2328C39.3675 38.219 39.3572 38.1976 39.3434 38.1692C39.3158 38.1124 39.2739 38.0276 39.2181 37.9186C39.1066 37.7007 38.9402 37.3869 38.7232 37.0094C38.2883 36.2528 37.6546 35.2478 36.8575 34.2465C35.2285 32.2002 33.0699 30.3612 30.6556 30.3612C28.3017 30.3612 26.5004 31.0875 25.2856 32.3493" fill="#2093FF"/>
<path fill-rule="evenodd" clip-rule="evenodd" d="M45.3051 34.9049C45.3051 34.9049 45.305 34.905 45.305 34.905L44.0188 35.6876C43.6977 35.883 43.279 35.781 43.0836 35.4599C42.8883 35.1388 42.9902 34.7201 43.3113 34.5248L44.5977 33.742C46.3577 32.6716 48.05 32.0095 49.3438 32.0095C50.3223 32.0095 51.7184 32.3178 52.8862 33.2244C54.0845 34.1547 54.9872 35.6742 54.9872 37.9619C54.9872 39.8259 54.5618 41.344 53.5729 42.3945C52.5763 43.453 51.1241 43.9142 49.3438 43.9142C48.9679 43.9142 48.6632 43.6095 48.6632 43.2337C48.6632 42.8578 48.9679 42.5531 49.3438 42.5531C50.9025 42.5531 51.9316 42.152 52.5818 41.4614C53.2395 40.7628 53.626 39.645 53.626 37.9619C53.626 36.079 52.9055 34.9626 52.0515 34.2996C51.167 33.6129 50.0817 33.3707 49.3438 33.3707C48.4326 33.3707 47.0052 33.871 45.3051 34.9049Z" fill="#2093FF"/>
</svg>

<svg width="80" height="80" viewBox="0 0 80 80" fill="none" xmlns="http://www.w3.org/2000/svg"><circle cx="40" cy="40" r="40" fill="#05F" fill-opacity=".03"/><path fill-rule="evenodd" clip-rule="evenodd" d="M25.286 32.35c-1.218 1.264-1.925 3.15-1.925 5.615 0 4.956 3.754 7.603 7.294 7.602h1.698a.68.68 0 01.498 1.144l-1.773 1.907 1.182 1.177 4.89-4.891-4.89-4.89-1.166 1.167 1.573 1.574a.68.68 0 01-.481 1.162h-1.53c-.98 0-2.375-.309-3.543-1.215-1.198-.93-2.1-2.45-2.1-4.737 0-1.864.424-3.382 1.413-4.433.996-1.058 2.449-1.52 4.23-1.52a.68.68 0 110 1.361c-1.56 0-2.589.402-3.239 1.092-.657.699-1.044 1.816-1.044 3.5 0 1.882.72 2.998 1.575 3.661.84.653 1.86.904 2.593.928l-.89-.892a.68.68 0 010-.962l2.128-2.13a.681.681 0 01.963 0l5.853 5.853a.68.68 0 010 .962l-5.853 5.853a.68.68 0 01-.962.001l-2.129-2.12a.68.68 0 01-.018-.946l1.158-1.245h-.135C26.464 46.929 22 43.77 22 37.965c0-2.723.784-4.98 2.305-6.56 1.524-1.583 3.71-2.405 6.35-2.405 3.085 0 5.6 2.303 7.267 4.399a23.888 23.888 0 012.682 4.25l.01.02.002.006.001.003-.617.287.617-.287.003.005.001.003.003.007a21.995 21.995 0 002.49 3.99c1.616 2.044 3.775 3.885 6.23 3.885 2.354 0 4.156-.726 5.37-1.988 1.218-1.265 1.925-3.15 1.925-5.615.002-4.957-3.752-7.604-7.293-7.604-1.911 0-4.068 1.036-5.603 1.97h-.002l-1.283.788a.68.68 0 01-.712-1.16l1.286-.79.002-.001c1.568-.953 4-2.168 6.312-2.168 4.192 0 8.657 3.16 8.654 8.965h-.68.68c0 2.722-.784 4.979-2.305 6.559-1.524 1.583-3.71 2.405-6.35 2.405-3.124 0-5.638-2.3-7.299-4.4a23.35 23.35 0 01-2.652-4.254l-.01-.02-.001-.004m-.001-.002v-.001l-.005-.008-.003-.007a21.42 21.42 0 00-.65-1.223 22.539 22.539 0 00-1.867-2.764c-1.629-2.046-3.787-3.885-6.201-3.885-2.354 0-4.156.726-5.37 1.988" fill="#2093FF"/><path fill-rule="evenodd" clip-rule="evenodd" d="M45.305 34.905l-1.286.783a.68.68 0 01-.708-1.163l1.287-.783c1.76-1.07 3.452-1.732 4.746-1.732.978 0 2.374.308 3.542 1.214 1.198.93 2.101 2.45 2.101 4.738 0 1.864-.425 3.382-1.414 4.432-.997 1.059-2.449 1.52-4.23 1.52a.68.68 0 110-1.36c1.56 0 2.589-.402 3.239-1.093.657-.698 1.044-1.816 1.044-3.5 0-1.882-.72-2.998-1.575-3.661-.884-.687-1.97-.93-2.707-.93-.911 0-2.339.501-4.039 1.535z" fill="#2093FF"/></svg>
